!!!OTL: 24. Schlaf, Kindchen, wohle!
!!!ARE: Europa, Mitteleuropa, Deutschland, Untertaunus, Niederreifenberg
!!!SCT: K0024
!!!TXL: @@DE
!!!YEM: Copyright 1995, estate of Helmut Schaffrath.
**kern	**text
*ICvox	*
*M2/4	*
*k[b-]	*
*F:	*
=1	=1
{4cc	Schlaf,
8b-	Kind-
8g	-chen,
=2	=2
4f	woh-
4c}	-le!
=3	=3
{16cc	Ʒuk-
16cc	-ker-
8cc	-chen
16b-	will
16b-	ich
8g	dir
=4	=4
4f	ho-
4c}	-le.
=5	=5
{16f	Ʒuk-
16f	-ker,
8f	Ro-
16g	-ſi-
16g	-nen
8g	und
=6	=6
8a	Man-
8dd	-del-
4cc}	-kern
=7	=7
{8b-/	ißt
8g	mein
8a	Kind-
8f	-chen
=8	=8
8g	gar
8g	ʒu
4f;}	gern.
==	==
!!!AGN: Kinder -, Wiegen - Lied
!!!ONB: ESAC (Essen Associative Code) Database: KINDER
!!!AMT: simple duple
!!!AIN: vox
!!!EED: Helmut Schaffrath
!!!EEV: 1.0
!!Niederreifenberg und Untertaunus.
!!!GTL: I. Wiegenlieder.
!!!URL-scan: https://archive.org/details/DeutschesKinderliedUndKinderspiel/page/5/mode/1up
!!!ENC: Anna Maria Matuszewska
!!!EEV: 2024/29/08
*-	*-
